P2
16 16
255
187 188 179 195 195 182 188 185 194 193 181 183 194 191 184 194 
212 208 202 187 195 202 208 205 211 212 205 206 207 213 209 209 
218 218 213 175 174 202 219 217 217 217 217 217 217 216 217 217 
193 194 188 134 133 147 185 212 215 169 173 217 217 217 217 217 
149 151 172 148 153 167 179 212 216 157 139 198 198 196 203 199 
209 210 198 141 145 142 155 189 211 136 121 149 132 129 139 131 
217 217 209 177 172 163 172 206 212 140 125 124 125 125 125 125 
216 216 215 210 185 148 163 213 212 139 125 126 126 126 126 126 
216 217 208 197 185 156 183 217 212 138 125 126 126 126 126 126 
216 217 206 159 156 149 173 192 212 139 124 124 124 124 124 124 
217 217 208 191 186 153 180 200 214 145 124 143 145 144 144 144 
198 194 202 203 198 173 187 199 215 161 164 179 181 205 214 177 
190 178 196 214 214 217 218 217 216 164 178 165 147 168 208 171 
185 189 205 217 216 216 216 216 216 162 183 169 166 158 165 169 
189 183 201 217 216 216 216 216 216 167 169 190 208 207 206 177 
183 190 216 216 216 216 216 216 216 187 177 184 214 217 216 199 
