P2
16 16
255
93 170 169 169 170 171 170 170 170 169 170 170 169 170 163 86 
143 235 226 195 195 190 212 250 250 250 250 250 250 250 242 136 
142 253 243 234 232 230 237 247 246 246 246 246 246 246 251 137 
136 198 224 226 227 226 224 237 248 247 247 247 247 247 244 105 
135 182 197 193 199 193 190 212 232 231 231 228 226 241 244 100 
139 208 193 188 201 199 196 194 199 198 196 191 213 238 244 100 
141 237 229 230 234 235 233 234 233 235 233 230 246 247 243 100 
141 241 235 235 235 237 234 241 247 247 247 247 246 246 243 100 
139 213 207 211 203 212 203 223 247 246 246 246 246 246 243 100 
142 235 243 248 248 248 248 248 247 247 247 247 247 247 243 100 
140 225 219 219 225 218 217 219 222 224 226 222 219 232 244 100 
140 213 196 216 231 227 228 229 232 232 234 230 228 237 244 100 
142 251 246 250 253 253 249 247 247 247 247 247 247 247 243 100 
134 169 152 154 153 155 224 247 246 246 246 246 246 246 243 100 
117 56 45 48 51 43 176 252 248 248 248 248 248 248 245 100 
112 150 135 136 137 139 197 217 216 216 216 216 216 216 215 89 
