P2
16 16
255
6 10 6 6 6 6 6 5 5 5 5 5 5 5 6 7 
9 34 12 14 16 17 11 5 5 5 5 5 5 5 6 6 
6 7 6 6 6 6 6 5 5 5 5 5 5 5 5 7 
7 14 9 9 9 9 9 7 5 5 5 5 5 5 6 16 
7 16 13 15 14 15 14 10 8 8 8 9 9 7 6 17 
7 14 15 16 14 14 14 15 14 15 14 16 10 7 6 17 
6 8 8 8 8 8 8 8 8 8 8 9 6 6 6 17 
6 9 9 9 9 9 9 8 7 7 7 7 7 7 7 16 
7 14 14 13 14 13 12 9 5 5 5 5 5 5 6 17 
7 11 7 7 8 7 5 5 5 5 5 5 5 5 6 17 
7 12 12 12 12 11 10 10 9 9 9 10 10 8 6 16 
7 13 14 9 8 8 8 8 7 7 8 8 8 7 6 17 
6 7 7 6 6 6 6 6 6 6 6 6 6 7 6 17 
8 24 28 27 27 26 10 6 7 7 7 7 7 7 6 16 
16 137 144 136 133 148 19 5 5 5 5 5 5 5 6 17 
8 28 32 31 31 30 9 5 5 5 5 5 5 5 6 15 
